X:02
T: Salt Creek
C: Traditional - Bill Monroe Solo
Z: TablEdited by John Baldry for MandoZine
S: MandoZine TablEdit Archives
L: 1/8
Q: 558
M: 4/4
K: A
 z6 E2 |: "A"[A=G][AA] z[AA] [AA][AA] [AA][AA] | BA Bc "D"d2 dd | "G"BA =GA BA =GA |
 BA =GF "E"E2 EE | "A"E[AA] z[AA] [AA][AA] [AA][AA] | BA Bc "D"d2 ef | "G"=ga =gf ef ed |
|1 c"E"A Bc "A"A2 [eA][eA] :|2 c"E"A Bc "A"A2 B=c |: "A"c[ac] z[ac] [ac][ac] [ac][ac] |
 [g=c][a^c] ^z[ac] [ac][ac] [ac][ac] | "G"[=g2B2] [=g2B2] [=gB][=gB] [=gB][=gB] | [=g2B2] [=g2B2] [=gB][=gB] [=gB][=gB] |
 "A"[=gB][ac] z[ac] [ac][ac] [ac][ac] | ef =gf e2 ef | "G"=ga =gf ef ed |1 c"E"A Bc "A"A2 B=c :|2 c"E"A Bc "A"A2  |
